assets/images/icon-bank-operations.svg

<?xml version="1.0" encoding="UTF-8"?>
<svg width="48px" height="48px" viewBox="0 0 48 48" version="1.1" xmlns="http://www.w3.org/2000/svg" xmlns:xlink="http://www.w3.org/1999/xlink">
    <!-- Generator: Sketch 48.2 (47327) - http://www.bohemiancoding.com/sketch -->
    <title>icon-bank-operations</title>
    <desc>Created with Sketch.</desc>
    <defs/>
    <g id="data-type" stroke="none" stroke-width="1" fill="none" fill-rule="evenodd">
        <g id="icon-bank-operations">
            <g id="icon-euro" fill="#B5EDBD" fill-rule="nonzero">
                <path d="M24,0 C10.766,0 0,10.766 0,24 C0,37.232 10.766,48 24,48 C37.232,48 48,37.232 48,24 C48,10.766 37.232,0 24,0 Z" id="Shape"/>
            </g>
            <path d="M33.9326923,16.3756906 C32.1490385,13.8563536 29.8269231,12 25.7211538,12 C20.9423077,12 17.5096154,15.2154696 16.1634615,19.6906077 L13,19.6906077 L13,22.5082873 L15.625,22.5082873 C15.5576923,23.0055249 15.5576923,23.5359116 15.5576923,24.0331492 C15.5576923,24.4640884 15.5576923,24.8950276 15.5913462,25.2928177 L13,25.2928177 L13,28.1436464 L16.0625,28.1436464 C17.375,32.8508287 20.875,36 25.8557692,36 C29.6923077,36 32.0817308,34.0773481 34,31.3259669 L31.0384615,29.1712707 C29.4903846,31.1933702 28.1442308,32.3535912 25.8894231,32.3535912 C23.2644231,32.3535912 21.3461538,30.7624309 20.4038462,28.1436464 L27.6730769,28.1436464 L27.6730769,25.2928177 L19.7644231,25.2928177 C19.7307692,24.8618785 19.7307692,24.4309392 19.7307692,23.9668508 C19.7307692,23.4696133 19.7307692,22.9723757 19.7980769,22.5082873 L27.6730769,22.5082873 L27.6730769,19.6906077 L20.4375,19.6906077 C21.3798077,17.2044199 23.2307692,15.6464088 25.6201923,15.6464088 C27.9759615,15.6464088 29.3557692,16.7071823 30.8028846,18.6629834 L33.9326923,16.3756906 Z" id="icon-euro" fill="#1EC737"/>
        </g>
    </g>
</svg>

<svg width="48" height="48" xmlns="http://www.w3.org/2000/svg"><g fill="none" fill-rule="evenodd"><path d="M24 0C10.766 0 0 10.766 0 24c0 13.232 10.766 24 24 24 13.232 0 24-10.768 24-24C48 10.766 37.232 0 24 0z" fill="#B5EDBD" fill-rule="nonzero"/><path d="M33.933 16.376C32.149 13.856 29.827 12 25.72 12c-4.779 0-8.211 3.215-9.558 7.69H13v2.818h2.625c-.067.498-.067 1.028-.067 1.525 0 .431 0 .862.033 1.26H13v2.85h3.063C17.375 32.852 20.875 36 25.855 36c3.836 0 6.226-1.923 8.144-4.674l-2.962-2.155c-1.548 2.022-2.894 3.183-5.149 3.183-2.625 0-4.543-1.592-5.485-4.21h7.27v-2.851h-7.91c-.033-.431-.033-.862-.033-1.326 0-.497 0-.995.067-1.459h7.875v-2.817h-7.235c.942-2.487 2.793-4.045 5.182-4.045 2.356 0 3.736 1.061 5.183 3.017l3.13-2.287z" fill="#1EC737"/></g></svg>
